X: 2
T: Gan Ainm
M: 4/4
L: 1/8
R: barndance / schottische / polka
K: Gmaj
|: D2 G2 BAGB | d2 c2 E3 G | F2 A2 d3 c | BcA G>FEF |
D2 G2 BAGB | d2 c2 E3 G | F2 d2 cB A2 | G4 G4 :|
|: A2 d2 A3 B | AGFE D2 d^c | B2 g2 ed^ce | d4 d4 |
A3 B A3 B | cBAG F2 FE | D2 e2 dcBA | G4 G4 :|
